; generated by Slic3r 0.9.10-dev on 2013-04-27 at 00:21:19

; layer_height = 0.4
; perimeters = 3
; top_solid_layers = 3
; bottom_solid_layers = 3
; fill_density = 0.4
; perimeter_speed = 30
; infill_speed = 60
; travel_speed = 130
; nozzle_diameter = 0.5
; filament_diameter = 3
; extrusion_multiplier = 1
; perimeters extrusion width = 0.53mm
; infill extrusion width = 0.53mm
; solid infill extrusion width = 0.53mm
; top infill extrusion width = 0.53mm
; first layer extrusion width = 0.70mm

G21 ; set units to millimeters
M107
M104 S200 ; set temperature
G28 ; home all axes
G1 Z5 F5000 ; lift nozzle

M109 S200 ; wait for temperature to be reached
G90 ; use absolute coordinates
G92 E0
M82 ; use absolute distances for extrusion
G1 F1800.000 E-1.00000
G92 E0
G1 Z0.350 F7800.000
G1 X82.970 Y82.780
G1 F1800.000 E1.00000
G1 X83.370 Y82.420 F540.000 E1.01751
G1 X84.020 Y81.950 E1.04361
G1 X84.250 Y81.810 E1.05237
G1 X84.970 Y81.460 E1.07841
G1 X85.470 Y81.270 E1.09582
G1 X85.990 Y81.120 E1.11342
G1 X86.510 Y81.010 E1.13072
G1 X87.040 Y80.940 E1.14811
G1 X87.580 Y80.920 E1.16569
G1 X112.410 Y80.920 E1.97354
G1 X112.950 Y80.940 E1.99112
G1 X113.740 Y81.060 E2.01712
G1 X114.520 Y81.270 E2.04340
G1 X115.020 Y81.460 E2.06080
G1 X115.740 Y81.810 E2.08685
G1 X116.190 Y82.100 E2.10427
G1 X116.620 Y82.420 E2.12171
G1 X117.210 Y82.970 E2.14795
G1 X117.570 Y83.370 E2.16546
G1 X118.040 Y84.020 E2.19155
G1 X118.180 Y84.250 E2.20031
G1 X118.530 Y84.970 E2.22636
G1 X118.720 Y85.470 E2.24376
G1 X118.870 Y85.990 E2.26137
G1 X118.980 Y86.510 E2.27866
G1 X119.050 Y87.040 E2.29606
G1 X119.070 Y87.580 E2.31364
G1 X119.070 Y112.410 E3.12149
G1 X119.050 Y112.950 E3.13907
G1 X118.930 Y113.740 E3.16507
G1 X118.720 Y114.520 E3.19135
G1 X118.530 Y115.020 E3.20875
G1 X118.180 Y115.740 E3.23480
G1 X117.890 Y116.190 E3.25221
G1 X117.570 Y116.620 E3.26965
G1 X117.020 Y117.210 E3.29590
G1 X116.620 Y117.570 E3.31341
G1 X115.970 Y118.040 E3.33950
G1 X115.740 Y118.180 E3.34826
G1 X115.020 Y118.530 E3.37431
G1 X114.520 Y118.720 E3.39171
G1 X114.000 Y118.870 E3.40932
G1 X113.480 Y118.980 E3.42661
G1 X112.950 Y119.050 E3.44401
G1 X112.410 Y119.070 E3.46159
G1 X87.580 Y119.070 E4.26944
G1 X87.040 Y119.050 E4.28702
G1 X86.250 Y118.930 E4.31302
G1 X85.470 Y118.720 E4.33930
G1 X84.970 Y118.530 E4.35670
G1 X84.250 Y118.180 E4.38275
G1 X83.800 Y117.890 E4.40016
G1 X83.370 Y117.570 E4.41760
G1 X82.780 Y117.020 E4.44384
G1 X82.420 Y116.620 E4.46135
G1 X81.950 Y115.970 E4.48745
G1 X81.810 Y115.740 E4.49621
G1 X81.460 Y115.020 E4.52226
G1 X81.270 Y114.520 E4.53966
G1 X81.120 Y114.000 E4.55727
G1 X81.010 Y113.480 E4.57456
G1 X80.940 Y112.950 E4.59195
G1 X80.920 Y112.410 E4.60954
G1 X80.920 Y87.580 E5.41738
G1 X80.940 Y87.040 E5.43497
G1 X81.060 Y86.250 E5.46096
G1 X81.270 Y85.470 E5.48724
G1 X81.460 Y84.970 E5.50465
G1 X81.810 Y84.250 E5.53069
G1 X81.950 Y84.020 E5.53945
G1 X82.420 Y83.370 E5.56555
G1 X82.900 Y82.850 E5.58859
G1 F1800.000 E4.58859
G92 E0
G1 X89.228 Y89.228 F7800.000
G1 F1800.000 E1.00000
G1 X110.772 Y89.228 F540.000 E1.70096
G1 X110.772 Y110.772 E2.40192
G1 X89.228 Y110.772 E3.10288
G1 X89.228 Y89.326 E3.80063
G1 X88.571 Y88.571 F7800.000
G1 X111.429 Y88.571 F540.000 E4.54435
G1 X111.429 Y111.429 E5.28806
G1 X88.571 Y111.429 E6.03178
G1 X88.571 Y88.669 E6.77229
G1 X87.914 Y87.914 F7800.000
G1 X112.086 Y87.914 F378.000 E7.55876
G1 X112.086 Y112.086 E8.34523
G1 X87.914 Y112.086 E9.13170
G1 X87.914 Y88.012 E9.91497
G1 X88.483 Y88.242 F7800.000
G1 X110.296 Y90.013
G1 X109.987 Y89.704 F1080.000 E9.92941
G1 X109.044 Y89.704 E9.96057
G1 X110.296 Y90.956 E10.01907
G1 X110.296 Y91.900 E10.05023
G1 X108.100 Y89.704 E10.15280
G1 X107.157 Y89.704 E10.18397
G1 X110.296 Y92.843 E10.33061
G1 X110.296 Y93.787 E10.36177
G1 X106.213 Y89.704 E10.55248
G1 X105.270 Y89.704 E10.58364
G1 X110.296 Y94.730 E10.81841
G1 X110.296 Y95.673 E10.84957
G1 X104.327 Y89.704 E11.12842
G1 X103.383 Y89.704 E11.15958
G1 X110.296 Y96.617 E11.48249
G1 X110.296 Y97.560 E11.51365
G1 X102.440 Y89.704 E11.88064
G1 X101.496 Y89.704 E11.91180
G1 X110.296 Y98.504 E12.32285
G1 X110.296 Y99.447 E12.35401
G1 X100.553 Y89.704 E12.80913
G1 X99.610 Y89.704 E12.84029
G1 X110.296 Y100.390 E13.33947
G1 X110.296 Y101.334 E13.37063
G1 X98.666 Y89.704 E13.91389
G1 X97.723 Y89.704 E13.94505
G1 X110.296 Y102.277 E14.53237
G1 X110.296 Y103.221 E14.56353
G1 X96.779 Y89.704 E15.19492
G1 X95.836 Y89.704 E15.22608
G1 X110.296 Y104.164 E15.90154
G1 X110.296 Y105.107 E15.93270
G1 X94.893 Y89.704 E16.65223
G1 X93.949 Y89.704 E16.68339
G1 X110.296 Y106.051 E17.44698
G1 X110.296 Y106.994 E17.47814
G1 X93.006 Y89.704 E18.28581
G1 X92.062 Y89.704 E18.31697
G1 X110.296 Y107.938 E19.16870
G1 X110.296 Y108.881 E19.19986
G1 X91.119 Y89.704 E20.09566
G1 X90.176 Y89.704 E20.12682
G1 X110.296 Y109.824 E21.06669
G1 X109.824 Y110.296 E21.08872
G1 X89.704 Y90.176 E22.02859
G1 X89.704 Y91.119 E22.05975
G1 X108.881 Y110.296 E22.95555
G1 X107.938 Y110.296 E22.98671
G1 X89.704 Y92.062 E23.83845
G1 X89.704 Y93.006 E23.86961
G1 X106.994 Y110.296 E24.67727
G1 X106.051 Y110.296 E24.70843
G1 X89.704 Y93.949 E25.47203
G1 X89.704 Y94.893 E25.50319
G1 X105.107 Y110.296 E26.22272
G1 X104.164 Y110.296 E26.25388
G1 X89.704 Y95.836 E26.92934
G1 X89.704 Y96.779 E26.96050
G1 X103.221 Y110.296 E27.59190
G1 X102.277 Y110.296 E27.62306
G1 X89.704 Y97.723 E28.21038
G1 X89.704 Y98.666 E28.24154
G1 X101.334 Y110.296 E28.78480
G1 X100.390 Y110.296 E28.81596
G1 X89.704 Y99.610 E29.31515
G1 X89.704 Y100.553 E29.34631
G1 X99.447 Y110.296 E29.80143
G1 X98.504 Y110.296 E29.83259
G1 X89.704 Y101.496 E30.24364
G1 X89.704 Y102.440 E30.27480
G1 X97.560 Y110.296 E30.64179
G1 X96.617 Y110.296 E30.67295
G1 X89.704 Y103.383 E30.99586
G1 X89.704 Y104.327 E31.02702
G1 X95.673 Y110.296 E31.30587
G1 X94.730 Y110.296 E31.33703
G1 X89.704 Y105.270 E31.57181
G1 X89.704 Y106.213 E31.60297
G1 X93.787 Y110.296 E31.79368
G1 X92.843 Y110.296 E31.82484
G1 X89.704 Y107.157 E31.97149
G1 X89.704 Y108.100 E32.00265
G1 X91.900 Y110.296 E32.10522
G1 X90.956 Y110.296 E32.13638
G1 X89.704 Y109.044 E32.19489
G1 X89.704 Y109.987 E32.22605
G1 X90.013 Y110.296 E32.24049
M106 S255
G1 F1800.000 E31.24049
G92 E0
G1 Z0.750 F7800.000
G1 X89.072 Y110.928
G1 F1800.000 E1.00000
G1 X89.072 Y89.072 F1485.812 E1.64271
G1 X110.928 Y89.072 E2.28542
G1 X110.928 Y110.928 E2.92813
G1 X89.149 Y110.928 E3.56855
G1 X88.552 Y111.448 F7800.000
G1 X88.552 Y88.552 F1485.812 E4.24182
G1 X111.448 Y88.552 E4.91509
G1 X111.448 Y111.448 E5.58836
G1 X88.630 Y111.448 E6.25934
G1 X88.032 Y111.968 F7800.000
G1 X88.032 Y88.032 F1040.068 E6.96317
G1 X111.968 Y88.032 E7.66700
G1 X111.968 Y111.968 E8.37083
G1 X88.110 Y111.968 E9.07237
G1 X88.292 Y111.518 F7800.000
G1 X89.448 Y89.964
G1 X89.964 Y89.448 F2971.623 E9.09381
G1 X90.699 Y89.448 E9.11545
G1 X89.448 Y90.699 E9.16749
G1 X89.448 Y91.434 E9.18912
G1 X91.434 Y89.448 E9.27176
G1 X92.169 Y89.448 E9.29339
G1 X89.448 Y92.169 E9.40662
G1 X89.448 Y92.905 E9.42825
G1 X92.905 Y89.448 E9.57208
G1 X93.640 Y89.448 E9.59371
G1 X89.448 Y93.640 E9.76813
G1 X89.448 Y94.375 E9.78977
G1 X94.375 Y89.448 E9.99478
G1 X95.111 Y89.448 E10.01642
G1 X89.448 Y95.111 E10.25203
G1 X89.448 Y95.846 E10.27366
G1 X95.846 Y89.448 E10.53987
G1 X96.581 Y89.448 E10.56150
G1 X89.448 Y96.581 E10.85830
G1 X89.448 Y97.316 E10.87994
G1 X97.316 Y89.448 E11.20733
G1 X98.052 Y89.448 E11.22897
G1 X89.448 Y98.052 E11.58696
G1 X89.448 Y98.787 E11.60859
G1 X98.787 Y89.448 E11.99718
G1 X99.522 Y89.448 E12.01881
G1 X89.448 Y99.522 E12.43799
G1 X89.448 Y100.258 E12.45963
G1 X100.258 Y89.448 E12.90940
G1 X100.993 Y89.448 E12.93103
G1 X89.448 Y100.993 E13.41141
G1 X89.448 Y101.728 E13.43304
G1 X101.728 Y89.448 E13.94401
G1 X102.464 Y89.448 E13.96564
G1 X89.448 Y102.464 E14.50720
G1 X89.448 Y103.199 E14.52884
G1 X103.199 Y89.448 E15.10099
G1 X103.934 Y89.448 E15.12263
G1 X89.448 Y103.934 E15.72538
G1 X89.448 Y104.669 E15.74701
G1 X104.669 Y89.448 E16.38036
G1 X105.405 Y89.448 E16.40199
G1 X89.448 Y105.405 E17.06593
G1 X89.448 Y106.140 E17.08757
G1 X106.140 Y89.448 E17.78210
G1 X106.875 Y89.448 E17.80374
G1 X89.448 Y106.875 E18.52887
G1 X89.448 Y107.611 E18.55050
G1 X107.611 Y89.448 E19.30623
G1 X108.346 Y89.448 E19.32786
G1 X89.448 Y108.346 E20.11418
G1 X89.448 Y109.081 E20.13582
G1 X109.081 Y89.448 E20.95273
G1 X109.817 Y89.448 E20.97437
G1 X89.448 Y109.817 E21.82188
G1 X89.448 Y110.552 E21.84351
G1 X110.552 Y89.448 E22.72162
G1 X110.552 Y90.183 E22.74325
G1 X90.183 Y110.552 E23.59077
G1 X90.919 Y110.552 E23.61240
G1 X110.552 Y90.919 E24.42932
G1 X110.552 Y91.654 E24.45096
G1 X91.654 Y110.552 E25.23728
G1 X92.389 Y110.552 E25.25892
G1 X110.552 Y92.389 E26.01465
G1 X110.552 Y93.125 E26.03628
G1 X93.125 Y110.552 E26.76141
G1 X93.860 Y110.552 E26.78305
G1 X110.552 Y93.860 E27.47759
G1 X110.552 Y94.595 E27.49922
G1 X94.595 Y110.552 E28.16317
G1 X95.330 Y110.552 E28.18480
G1 X110.552 Y95.330 E28.81815
G1 X110.552 Y96.066 E28.83979
G1 X96.066 Y110.552 E29.44254
G1 X96.801 Y110.552 E29.46417
G1 X110.552 Y96.801 E30.03633
G1 X110.552 Y97.536 E30.05797
G1 X97.536 Y110.552 E30.59953
G1 X98.272 Y110.552 E30.62117
G1 X110.552 Y98.272 E31.13214
G1 X110.552 Y99.007 E31.15377
G1 X99.007 Y110.552 E31.63414
G1 X99.742 Y110.552 E31.65578
G1 X110.552 Y99.742 E32.10556
G1 X110.552 Y100.478 E32.12719
G1 X100.478 Y110.552 E32.54637
G1 X101.213 Y110.552 E32.56801
G1 X110.552 Y101.213 E32.95660
G1 X110.552 Y101.948 E32.97823
G1 X101.948 Y110.552 E33.33623
G1 X102.683 Y110.552 E33.35786
G1 X110.552 Y102.683 E33.68526
G1 X110.552 Y103.419 E33.70689
G1 X103.419 Y110.552 E34.00370
G1 X104.154 Y110.552 E34.02533
G1 X110.552 Y104.154 E34.29154
G1 X110.552 Y104.889 E34.31317
G1 X104.889 Y110.552 E34.54879
G1 X105.625 Y110.552 E34.57042
G1 X110.552 Y105.625 E34.77544
G1 X110.552 Y106.360 E34.79707
G1 X106.360 Y110.552 E34.97150
G1 X107.095 Y110.552 E34.99313
G1 X110.552 Y107.095 E35.13696
G1 X110.552 Y107.830 E35.15859
G1 X107.830 Y110.552 E35.27183
G1 X108.566 Y110.552 E35.29346
G1 X110.552 Y108.566 E35.37610
G1 X110.552 Y109.301 E35.39773
G1 X109.301 Y110.552 E35.44978
G1 X110.036 Y110.552 E35.47141
G1 X110.552 Y110.036 E35.49286
G1 F1800.000 E34.49286
G92 E0
G1 Z1.150 F7800.000
G1 X110.729 Y110.729
G1 F1800.000 E1.00000
G1 X89.271 Y110.729 F1014.509 E1.63095
G1 X89.271 Y89.271 E2.26190
G1 X110.729 Y89.271 E2.89285
G1 X110.729 Y110.651 E3.52151
G1 X111.248 Y111.248 F7800.000
G1 X88.752 Y111.248 F1014.509 E4.18302
G1 X88.752 Y88.752 E4.84453
G1 X111.248 Y88.752 E5.50604
G1 X111.248 Y111.170 E6.16526
G1 X111.768 Y111.768 F7800.000
G1 X88.232 Y111.768 F710.156 E6.85733
G1 X88.232 Y88.232 E7.54940
G1 X111.768 Y88.232 E8.24147
G1 X111.768 Y111.690 E8.93125
G1 X111.318 Y111.508 F7800.000
G1 X89.764 Y110.352
G1 X89.648 Y110.236 F2029.017 E8.93606
G1 X89.648 Y109.501 E8.95769
G1 X90.499 Y110.352 E8.99310
G1 X91.234 Y110.352 E9.01473
G1 X89.648 Y108.766 E9.08073
G1 X89.648 Y108.030 E9.10236
G1 X91.970 Y110.352 E9.19896
G1 X92.705 Y110.352 E9.22059
G1 X89.648 Y107.295 E9.34778
G1 X89.648 Y106.560 E9.36941
G1 X93.440 Y110.352 E9.52720
G1 X94.175 Y110.352 E9.54883
G1 X89.648 Y105.825 E9.73721
G1 X89.648 Y105.089 E9.75884
G1 X94.911 Y110.352 E9.97782
G1 X95.646 Y110.352 E9.99945
G1 X89.648 Y104.354 E10.24902
G1 X89.648 Y103.619 E10.27065
G1 X96.381 Y110.352 E10.55082
G1 X97.117 Y110.352 E10.57245
G1 X89.648 Y102.883 E10.88321
G1 X89.648 Y102.148 E10.90484
G1 X97.852 Y110.352 E11.24620
G1 X98.587 Y110.352 E11.26783
G1 X89.648 Y101.413 E11.63978
G1 X89.648 Y100.677 E11.66142
G1 X99.323 Y110.352 E12.06396
G1 X100.058 Y110.352 E12.08559
G1 X89.648 Y99.942 E12.51873
G1 X89.648 Y99.207 E12.54037
G1 X100.793 Y110.352 E13.00410
G1 X101.528 Y110.352 E13.02573
G1 X89.648 Y98.472 E13.52006
G1 X89.648 Y97.736 E13.54170
G1 X102.264 Y110.352 E14.06662
G1 X102.999 Y110.352 E14.08826
G1 X89.648 Y97.001 E14.64378
G1 X89.648 Y96.266 E14.66541
G1 X103.734 Y110.352 E15.25152
G1 X104.470 Y110.352 E15.27316
G1 X89.648 Y95.530 E15.88987
G1 X89.648 Y94.795 E15.91150
G1 X105.205 Y110.352 E16.55881
G1 X105.940 Y110.352 E16.58044
G1 X89.648 Y94.060 E17.25834
G1 X89.648 Y93.325 E17.27997
G1 X106.675 Y110.352 E17.98847
G1 X107.411 Y110.352 E18.01010
G1 X89.648 Y92.589 E18.74919
G1 X89.648 Y91.854 E18.77083
G1 X108.146 Y110.352 E19.54051
G1 X108.881 Y110.352 E19.56215
G1 X89.648 Y91.119 E20.36243
G1 X89.648 Y90.383 E20.38406
G1 X109.617 Y110.352 E21.21493
G1 X110.352 Y110.352 E21.23657
G1 X89.648 Y89.648 E22.09803
G1 X90.383 Y89.648 E22.11967
G1 X110.352 Y109.617 E22.95054
G1 X110.352 Y108.881 E22.97217
G1 X91.119 Y89.648 E23.77245
G1 X91.854 Y89.648 E23.79408
G1 X110.352 Y108.146 E24.56376
G1 X110.352 Y107.411 E24.58540
G1 X92.589 Y89.648 E25.32448
G1 X93.325 Y89.648 E25.34612
G1 X110.352 Y106.675 E26.05461
G1 X110.352 Y105.940 E26.07624
G1 X94.060 Y89.648 E26.75414
G1 X94.795 Y89.648 E26.77577
G1 X110.352 Y105.205 E27.42307
G1 X110.352 Y104.469 E27.44471
G1 X95.531 Y89.648 E28.06141
G1 X96.266 Y89.648 E28.08305
G1 X110.352 Y103.734 E28.66916
G1 X110.352 Y102.999 E28.69079
G1 X97.001 Y89.648 E29.24631
G1 X97.736 Y89.648 E29.26794
G1 X110.352 Y102.264 E29.79286
G1 X110.352 Y101.528 E29.81450
G1 X98.472 Y89.648 E30.30882
G1 X99.207 Y89.648 E30.33045
G1 X110.352 Y100.793 E30.79419
G1 X110.352 Y100.058 E30.81582
G1 X99.942 Y89.648 E31.24895
G1 X100.678 Y89.648 E31.27059
G1 X110.352 Y99.322 E31.67313
G1 X110.352 Y98.587 E31.69476
G1 X101.413 Y89.648 E32.06671
G1 X102.148 Y89.648 E32.08834
G1 X110.352 Y97.852 E32.42969
G1 X110.352 Y97.117 E32.45133
G1 X102.883 Y89.648 E32.76208
G1 X103.619 Y89.648 E32.78371
G1 X110.352 Y96.381 E33.06387
G1 X110.352 Y95.646 E33.08551
G1 X104.354 Y89.648 E33.33507
G1 X105.089 Y89.648 E33.35671
G1 X110.352 Y94.911 E33.57568
G1 X110.352 Y94.175 E33.59731
G1 X105.825 Y89.648 E33.78569
G1 X106.560 Y89.648 E33.80732
G1 X110.352 Y93.440 E33.96510
G1 X110.352 Y92.705 E33.98673
G1 X107.295 Y89.648 E34.11392
G1 X108.031 Y89.648 E34.13555
G1 X110.352 Y91.969 E34.23214
G1 X110.352 Y91.234 E34.25378
G1 X108.766 Y89.648 E34.31977
G1 X109.501 Y89.648 E34.34140
G1 X110.352 Y90.499 E34.37680
G1 X110.352 Y89.764 E34.39844
G1 X110.236 Y89.648 E34.40324
G1 F1800.000 E33.40324
G92 E0
G1 Z1.550 F7800.000
G1 X110.529 Y89.471
G1 F1800.000 E1.00000
G1 X110.529 Y110.529 F987.880 E1.61919
G1 X89.471 Y110.529 E2.23838
G1 X89.471 Y89.471 E2.85757
G1 X110.451 Y89.471 E3.47447
G1 X111.048 Y88.952 F7800.000
G1 X111.048 Y111.048 F987.880 E4.12422
G1 X88.952 Y111.048 E4.77397
G1 X88.952 Y88.952 E5.42372
G1 X110.970 Y88.952 E6.07118
G1 X111.568 Y88.432 F7800.000
G1 X111.568 Y111.568 F691.516 E6.75149
G1 X88.432 Y111.568 E7.43180
G1 X88.432 Y88.432 E8.11211
G1 X111.490 Y88.432 E8.79013
G1 X111.308 Y88.882 F7800.000
G1 X110.152 Y91.348
G1 X109.943 Y91.404 F1975.759 E8.79650
G1 X108.670 Y90.131 E8.84944
G1 X108.746 Y89.848 E8.85806
G1 X106.549 Y89.848 E8.92264
G1 X107.433 Y90.732 E8.95938
G1 X108.302 Y90.499 E8.98585
G1 X109.575 Y91.772 E9.03878
G1 X109.342 Y92.641 E9.06524
G1 X110.152 Y93.451 E9.09891
G1 X110.152 Y95.288 F7800.000
G1 X110.015 Y95.151 F1975.759 E9.10462
G1 X110.152 Y94.638 E9.12021
G1 X110.152 Y94.186 E9.13353
G1 X108.975 Y93.008 E9.18248
G1 X108.105 Y93.241 E9.20895
G1 X106.832 Y91.969 E9.26188
G1 X107.065 Y91.099 E9.28834
G1 X105.814 Y89.848 E9.34037
G1 X105.711 Y89.848 E9.34341
G1 X104.923 Y90.059 E9.36739
G1 X104.712 Y89.848 E9.37617
G1 X103.977 Y89.848 E9.39778
G1 X104.556 Y90.427 E9.42184
G1 X104.323 Y91.296 E9.44830
G1 X105.596 Y92.569 E9.50123
G1 X106.465 Y92.336 E9.52770
G1 X107.738 Y93.609 E9.58063
G1 X107.505 Y94.478 E9.60710
G1 X108.778 Y95.751 E9.66003
G1 X109.647 Y95.518 E9.68649
G1 X110.152 Y96.023 E9.70748
G1 X110.152 Y100.762 F7800.000
G1 X110.152 Y98.073 F1975.759 E9.78658
G1 X109.450 Y98.261 E9.80793
G1 X108.177 Y96.988 E9.86087
G1 X108.410 Y96.118 E9.88733
G1 X107.138 Y94.846 E9.94026
G1 X106.268 Y95.079 E9.96673
G1 X104.995 Y93.806 E10.01966
G1 X105.228 Y92.936 E10.04613
G1 X103.955 Y91.664 E10.09906
G1 X103.086 Y91.896 E10.12552
G1 X101.813 Y90.624 E10.17846
G1 X102.021 Y89.848 E10.20206
G1 X99.331 Y89.848 E10.28116
G1 X99.304 Y89.951 E10.28429
